X:252
T:Delboys
R:jig
M:6/8
L:1/8
K:Dmaj
e | fdA FAG- | GFG cde | fdA FAG- | GFE DFA |
dcA FAG- | GFG B/c/de | fag f/g/fe | e2 d-d2 e|
fdA FAG- | GFG cde | fdA FAG- | GFE DFA |
dcA fag- | g z g fga | bag f/g/fe | e/f/ed-d z2 ||
AGF dza- | agf e/f/ed- | dAB d3 | ABd BAG |
AGF dza- | agf e/f/ed- | dAB def | g3 zfe |
AGF dza- | agf e/f/ed- | dAB d3 | ABd BAG |
AGF dza- | agf e/f/ed- | dAB deg | f2 z age |]
